X: 1210
T: Miss McDonald
M:C|
L:1/8
R:Reel
B:O'Neill's 1210
N:Collected by McFadden
Z:Transcribed by Trish O'Neil
K:G
dc |: B>G (3GGG BGdG | B>G (3GGGg2fg | aA (3AAA AcBA |1 (3Bcd ef gedc :|2 (3Bcd ef gedB ||
|: TGFGD EDEF | GFGD B,G,B,D | TGFGD EDEG |1 (3efg dB BAAB :|2 (3efg dB BAAf ||
|| g>d (3ddd gagf | edef gdBd | g>d (3ddd gagf | edef (3ggg ga |
| gdBd gdBd | edef gdBd | g2{a}gf gbag | edef gbaf ||
|| e2dB BAAB | GBdB GBdg | e2dB cABA | GEDEG2~g2 |
| (3efg dB cABA | GBdB GBdg | (3efg dB cABA | GEDE G2 |]


